X:191
T:The Magpie - G
M:4/4
L:1/8
K:G
Bc|:"G"d2 gd edBG|DGBG DGBG|"D"DFAF DFAF|DFAB c2Bc|
|:"G"d4 g4|d2 g4 d2|"C"e2>f2 gfe2|"D"fefg f2ef|

